images/6604815.svg

<?xml version="1.0" encoding="UTF-8"?>
<svg xmlns="http://www.w3.org/2000/svg" xmlns:xlink="http://www.w3.org/1999/xlink" width="300pt" height="300pt" viewBox="0 0 300 300" version="1.1">
<defs>
<g>
<symbol overflow="visible" id="glyph0-0">
<path style="stroke:none;" d="M 0.796875 2.828125 L 0.796875 -11.28125 L 8.796875 -11.28125 L 8.796875 2.828125 Z M 1.703125 1.9375 L 7.90625 1.9375 L 7.90625 -10.390625 L 1.703125 -10.390625 Z M 1.703125 1.9375 "/>
</symbol>
<symbol overflow="visible" id="glyph0-1">
<path style="stroke:none;" d="M 6.3125 -10.59375 C 5.164062 -10.59375 4.253906 -10.164062 3.578125 -9.3125 C 2.898438 -8.457031 2.5625 -7.296875 2.5625 -5.828125 C 2.5625 -4.359375 2.898438 -3.195312 3.578125 -2.34375 C 4.253906 -1.488281 5.164062 -1.0625 6.3125 -1.0625 C 7.457031 -1.0625 8.363281 -1.488281 9.03125 -2.34375 C 9.695312 -3.195312 10.03125 -4.359375 10.03125 -5.828125 C 10.03125 -7.296875 9.695312 -8.457031 9.03125 -9.3125 C 8.363281 -10.164062 7.457031 -10.59375 6.3125 -10.59375 Z M 6.3125 -11.875 C 7.945312 -11.875 9.253906 -11.328125 10.234375 -10.234375 C 11.210938 -9.140625 11.703125 -7.671875 11.703125 -5.828125 C 11.703125 -3.984375 11.210938 -2.507812 10.234375 -1.40625 C 9.253906 -0.3125 7.945312 0.234375 6.3125 0.234375 C 4.664062 0.234375 3.351562 -0.3125 2.375 -1.40625 C 1.394531 -2.507812 0.90625 -3.984375 0.90625 -5.828125 C 0.90625 -7.671875 1.394531 -9.140625 2.375 -10.234375 C 3.351562 -11.328125 4.664062 -11.875 6.3125 -11.875 Z M 6.3125 -11.875 "/>
</symbol>
<symbol overflow="visible" id="glyph0-2">
<path style="stroke:none;" d="M 1.578125 -11.671875 L 3.15625 -11.671875 L 3.15625 -6.890625 L 8.890625 -6.890625 L 8.890625 -11.671875 L 10.46875 -11.671875 L 10.46875 0 L 8.890625 0 L 8.890625 -5.5625 L 3.15625 -5.5625 L 3.15625 0 L 1.578125 0 Z M 1.578125 -11.671875 "/>
</symbol>
</g>
</defs>
<g id="surface30013">
<rect x="0" y="0" width="300" height="300" style="fill:rgb(100%,100%,100%);fill-opacity:1;stroke:none;"/>
<path style="fill:none;stroke-width:1.2;stroke-linecap:butt;stroke-linejoin:miter;stroke:rgb(0%,0%,0%);stroke-opacity:1;stroke-miterlimit:10;" d="M 124.96875 32.890625 L 142.589844 66.839844 "/>
<path style="fill:none;stroke-width:1.2;stroke-linecap:butt;stroke-linejoin:miter;stroke:rgb(0%,0%,0%);stroke-opacity:1;stroke-miterlimit:10;" d="M 142.386719 71.335938 L 161.492188 72.195312 "/>
<path style="fill:none;stroke-width:1.2;stroke-linecap:butt;stroke-linejoin:miter;stroke:rgb(100%,0%,0%);stroke-opacity:1;stroke-miterlimit:10;" d="M 161.492188 72.195312 L 180.597656 73.050781 "/>
<path style="fill:none;stroke-width:1.2;stroke-linecap:butt;stroke-linejoin:miter;stroke:rgb(0%,0%,0%);stroke-opacity:1;stroke-miterlimit:10;" d="M 142.792969 62.34375 L 161.898438 63.203125 "/>
<path style="fill:none;stroke-width:1.2;stroke-linecap:butt;stroke-linejoin:miter;stroke:rgb(100%,0%,0%);stroke-opacity:1;stroke-miterlimit:10;" d="M 161.898438 63.203125 L 181.003906 64.0625 "/>
<path style="fill:none;stroke-width:1.2;stroke-linecap:butt;stroke-linejoin:miter;stroke:rgb(0%,0%,0%);stroke-opacity:1;stroke-miterlimit:10;" d="M 142.589844 66.839844 L 132.292969 82.957031 "/>
<path style="fill:none;stroke-width:1.2;stroke-linecap:butt;stroke-linejoin:miter;stroke:rgb(100%,0%,0%);stroke-opacity:1;stroke-miterlimit:10;" d="M 132.292969 82.957031 L 121.996094 99.074219 "/>
<path style=" stroke:none;fill-rule:nonzero;fill:rgb(100%,100%,100%);fill-opacity:1;" d="M 174.800781 59.058594 L 187.800781 59.058594 L 187.800781 78.058594 L 174.800781 78.058594 Z M 174.800781 59.058594 "/>
<g style="fill:rgb(100%,0%,0%);fill-opacity:1;">
  <use xlink:href="#glyph0-1" x="174.800781" y="73.910156"/>
</g>
<path style=" stroke:none;fill-rule:nonzero;fill:rgb(0%,0%,0%);fill-opacity:1;" d="M 139.617188 133.023438 L 127.988281 95.964844 L 116.007812 102.183594 Z M 139.617188 133.023438 "/>
<path style=" stroke:none;fill-rule:nonzero;fill:rgb(100%,100%,100%);fill-opacity:1;" d="M 115.996094 89.574219 L 128.996094 89.574219 L 128.996094 108.574219 L 115.996094 108.574219 Z M 115.996094 89.574219 "/>
<g style="fill:rgb(100%,0%,0%);fill-opacity:1;">
  <use xlink:href="#glyph0-1" x="115.996094" y="104.425781"/>
</g>
<path style="fill:none;stroke-width:1.2;stroke-linecap:butt;stroke-linejoin:miter;stroke:rgb(0%,0%,0%);stroke-opacity:1;stroke-miterlimit:10;" d="M 139.617188 133.023438 L 177.828125 134.742188 "/>
<path style="fill:none;stroke-width:1.2;stroke-linecap:butt;stroke-linejoin:miter;stroke:rgb(0%,0%,0%);stroke-opacity:1;stroke-miterlimit:10;" d="M 119.023438 165.257812 L 139.617188 133.023438 "/>
<path style="fill:none;stroke-width:1.2;stroke-linecap:butt;stroke-linejoin:miter;stroke:rgb(0%,0%,0%);stroke-opacity:1;stroke-miterlimit:10;" d="M 177.828125 134.742188 L 195.449219 168.691406 "/>
<path style=" stroke:none;fill-rule:nonzero;fill:rgb(0%,0%,0%);fill-opacity:1;" d="M 177.828125 134.742188 L 204.109375 106.140625 L 192.734375 98.875 Z M 177.828125 134.742188 "/>
<path style="fill:none;stroke-width:1.2;stroke-linecap:butt;stroke-linejoin:miter;stroke:rgb(0%,0%,0%);stroke-opacity:1;stroke-miterlimit:10;" d="M 195.449219 168.691406 L 174.855469 200.925781 "/>
<path style=" stroke:none;fill-rule:nonzero;fill:rgb(0%,0%,0%);fill-opacity:1;" d="M 195.449219 168.691406 L 233.355469 177.152344 L 233.960938 163.664062 Z M 195.449219 168.691406 "/>
<path style="fill:none;stroke-width:1.2;stroke-linecap:butt;stroke-linejoin:miter;stroke:rgb(0%,0%,0%);stroke-opacity:1;stroke-miterlimit:10;" d="M 174.855469 200.925781 L 192.476562 234.875 "/>
<path style="fill:none;stroke-width:1.2;stroke-linecap:butt;stroke-linejoin:miter;stroke:rgb(0%,0%,0%);stroke-opacity:1;stroke-miterlimit:10;" d="M 174.855469 200.925781 L 136.644531 199.210938 "/>
<path style=" stroke:none;fill-rule:nonzero;fill:rgb(0%,0%,0%);fill-opacity:1;" d="M 174.855469 200.925781 L 159.019531 218.386719 L 171.195312 224.214844 Z M 174.855469 200.925781 "/>
<path style="fill:none;stroke-width:1.2;stroke-linecap:butt;stroke-linejoin:miter;stroke:rgb(0%,0%,0%);stroke-opacity:1;stroke-miterlimit:10;" d="M 192.476562 234.875 L 230.6875 236.59375 "/>
<path style="fill:none;stroke-width:1;stroke-linecap:butt;stroke-linejoin:miter;stroke:rgb(0%,0%,0%);stroke-opacity:1;stroke-miterlimit:10;" d="M 192.476562 234.875 L 192.476562 234.875 M 190.445312 237.085938 L 191.324219 237.644531 M 188.414062 239.292969 L 190.171875 240.417969 M 186.386719 241.503906 L 189.023438 243.1875 M 184.355469 243.710938 L 187.871094 245.957031 M 182.324219 245.921875 L 186.71875 248.726562 M 180.296875 248.128906 L 185.566406 251.496094 M 178.265625 250.339844 L 184.417969 254.269531 M 176.238281 252.546875 L 183.265625 257.039062 M 174.207031 254.757812 L 182.113281 259.808594 M 172.175781 256.964844 L 180.964844 262.578125 M 170.148438 259.175781 L 179.8125 265.351562 M 168.117188 261.382812 L 178.660156 268.121094 M 166.195312 263.476562 L 177.570312 270.742188 "/>
<path style="fill:none;stroke-width:1.2;stroke-linecap:butt;stroke-linejoin:miter;stroke:rgb(0%,0%,0%);stroke-opacity:1;stroke-miterlimit:10;" d="M 230.6875 236.59375 L 251.277344 204.359375 "/>
<path style="fill:none;stroke-width:1.2;stroke-linecap:butt;stroke-linejoin:miter;stroke:rgb(0%,0%,0%);stroke-opacity:1;stroke-miterlimit:10;" d="M 251.277344 204.359375 L 233.660156 170.40625 "/>
<path style="fill:none;stroke-width:1.2;stroke-linecap:butt;stroke-linejoin:miter;stroke:rgb(0%,0%,0%);stroke-opacity:1;stroke-miterlimit:10;" d="M 233.660156 170.40625 L 228.714844 132.480469 "/>
<path style="fill:none;stroke-width:1.2;stroke-linecap:butt;stroke-linejoin:miter;stroke:rgb(0%,0%,0%);stroke-opacity:1;stroke-miterlimit:10;" d="M 233.660156 170.40625 L 270.152344 158.953125 "/>
<path style=" stroke:none;fill-rule:nonzero;fill:rgb(100%,100%,100%);fill-opacity:1;" d="M 146.882812 257.609375 L 171.882812 257.609375 L 171.882812 276.609375 L 146.882812 276.609375 Z M 146.882812 257.609375 "/>
<g style="fill:rgb(100%,0%,0%);fill-opacity:1;">
  <use xlink:href="#glyph0-2" x="146.882812" y="272.460938"/>
  <use xlink:href="#glyph0-1" x="158.914062" y="272.460938"/>
</g>
<path style="fill:none;stroke-width:1.2;stroke-linecap:butt;stroke-linejoin:miter;stroke:rgb(0%,0%,0%);stroke-opacity:1;stroke-miterlimit:10;" d="M 136.644531 199.210938 L 119.023438 165.257812 "/>
<path style=" stroke:none;fill-rule:nonzero;fill:rgb(0%,0%,0%);fill-opacity:1;" d="M 136.644531 199.210938 L 138.203125 222.730469 L 150.851562 218.019531 Z M 136.644531 199.210938 "/>
<path style="fill:none;stroke-width:1.2;stroke-linecap:butt;stroke-linejoin:miter;stroke:rgb(0%,0%,0%);stroke-opacity:1;stroke-miterlimit:10;" d="M 116.050781 231.441406 L 136.644531 199.210938 "/>
<path style="fill:none;stroke-width:1.2;stroke-linecap:butt;stroke-linejoin:miter;stroke:rgb(0%,0%,0%);stroke-opacity:1;stroke-miterlimit:10;" d="M 119.023438 165.257812 L 99.917969 164.402344 "/>
<path style="fill:none;stroke-width:1.2;stroke-linecap:butt;stroke-linejoin:miter;stroke:rgb(100%,0%,0%);stroke-opacity:1;stroke-miterlimit:10;" d="M 99.917969 164.402344 L 80.8125 163.542969 "/>
<path style=" stroke:none;fill-rule:nonzero;fill:rgb(0%,0%,0%);fill-opacity:1;" d="M 119.023438 165.257812 L 107.398438 128.199219 L 95.414062 134.417969 Z M 119.023438 165.257812 "/>
<path style="fill:none;stroke-width:1.2;stroke-linecap:butt;stroke-linejoin:miter;stroke:rgb(100%,0%,0%);stroke-opacity:1;stroke-miterlimit:10;" d="M 80.8125 163.542969 L 70.515625 179.660156 "/>
<path style="fill:none;stroke-width:1.2;stroke-linecap:butt;stroke-linejoin:miter;stroke:rgb(0%,0%,0%);stroke-opacity:1;stroke-miterlimit:10;" d="M 70.515625 179.660156 L 60.222656 195.777344 "/>
<path style=" stroke:none;fill-rule:nonzero;fill:rgb(100%,100%,100%);fill-opacity:1;" d="M 74.8125 154.042969 L 87.8125 154.042969 L 87.8125 173.042969 L 74.8125 173.042969 Z M 74.8125 154.042969 "/>
<g style="fill:rgb(100%,0%,0%);fill-opacity:1;">
  <use xlink:href="#glyph0-1" x="74.8125" y="168.894531"/>
</g>
<path style="fill:none;stroke-width:1.2;stroke-linecap:butt;stroke-linejoin:miter;stroke:rgb(0%,0%,0%);stroke-opacity:1;stroke-miterlimit:10;" d="M 60.222656 195.777344 L 77.839844 229.726562 "/>
<path style=" stroke:none;fill-rule:nonzero;fill:rgb(0%,0%,0%);fill-opacity:1;" d="M 60.222656 195.777344 L 25.742188 213.664062 L 33.949219 224.382812 Z M 60.222656 195.777344 "/>
<path style="fill:none;stroke-width:1.2;stroke-linecap:butt;stroke-linejoin:miter;stroke:rgb(0%,0%,0%);stroke-opacity:1;stroke-miterlimit:10;" d="M 60.222656 195.777344 L 32.054688 169.898438 "/>
<path style="fill:none;stroke-width:1.2;stroke-linecap:butt;stroke-linejoin:miter;stroke:rgb(0%,0%,0%);stroke-opacity:1;stroke-miterlimit:10;" d="M 77.839844 229.726562 L 116.050781 231.441406 "/>
<path style="fill:none;stroke-width:1.2;stroke-linecap:butt;stroke-linejoin:miter;stroke:rgb(0%,0%,0%);stroke-opacity:1;stroke-miterlimit:10;" d="M 112.058594 233.515625 L 120.867188 250.492188 "/>
<path style="fill:none;stroke-width:1.2;stroke-linecap:butt;stroke-linejoin:miter;stroke:rgb(100%,0%,0%);stroke-opacity:1;stroke-miterlimit:10;" d="M 120.867188 250.492188 L 129.675781 267.464844 "/>
<path style="fill:none;stroke-width:1.2;stroke-linecap:butt;stroke-linejoin:miter;stroke:rgb(0%,0%,0%);stroke-opacity:1;stroke-miterlimit:10;" d="M 120.046875 229.371094 L 128.855469 246.34375 "/>
<path style="fill:none;stroke-width:1.2;stroke-linecap:butt;stroke-linejoin:miter;stroke:rgb(100%,0%,0%);stroke-opacity:1;stroke-miterlimit:10;" d="M 128.855469 246.34375 L 137.664062 263.320312 "/>
<path style=" stroke:none;fill-rule:nonzero;fill:rgb(100%,100%,100%);fill-opacity:1;" d="M 127.671875 255.894531 L 140.671875 255.894531 L 140.671875 274.894531 L 127.671875 274.894531 Z M 127.671875 255.894531 "/>
<g style="fill:rgb(100%,0%,0%);fill-opacity:1;">
  <use xlink:href="#glyph0-1" x="127.671875" y="270.746094"/>
</g>
<path style="fill:none;stroke-width:1.2;stroke-linecap:butt;stroke-linejoin:miter;stroke:rgb(0%,0%,0%);stroke-opacity:1;stroke-miterlimit:10;" d="M 36.445312 170.878906 L 44.769531 133.546875 "/>
<path style="fill:none;stroke-width:1.2;stroke-linecap:butt;stroke-linejoin:miter;stroke:rgb(0%,0%,0%);stroke-opacity:1;stroke-miterlimit:10;" d="M 27.660156 168.921875 L 35.988281 131.585938 "/>
<path style=" stroke:none;fill-rule:nonzero;fill:rgb(100%,100%,100%);fill-opacity:1;" d="M 132.527344 210.875 L 157.527344 210.875 L 157.527344 229.875 L 132.527344 229.875 Z M 132.527344 210.875 "/>
<g style="fill:rgb(100%,0%,0%);fill-opacity:1;">
  <use xlink:href="#glyph0-1" x="132.527344" y="225.726562"/>
  <use xlink:href="#glyph0-2" x="145.121094" y="225.726562"/>
</g>
<path style=" stroke:none;fill-rule:nonzero;fill:rgb(100%,100%,100%);fill-opacity:1;" d="M 186.421875 93.007812 L 211.421875 93.007812 L 211.421875 112.007812 L 186.421875 112.007812 Z M 186.421875 93.007812 "/>
<g style="fill:rgb(100%,0%,0%);fill-opacity:1;">
  <use xlink:href="#glyph0-1" x="186.421875" y="107.859375"/>
  <use xlink:href="#glyph0-2" x="199.015625" y="107.859375"/>
</g>
</g>
</svg>

<svg xmlns="http://www.w3.org/2000/svg" xmlns:xlink="http://www.w3.org/1999/xlink" width="300pt" height="300pt" viewBox="0 0 300 300"><defs><symbol overflow="visible"><path d="M.797 2.828v-14.11h8V2.83zm.906-.89h6.203v-12.33H1.703zm0 0"/></symbol><symbol overflow="visible" id="a"><path d="M6.313-10.594c-1.15 0-2.06.43-2.735 1.28-.68.857-1.015 2.017-1.015 3.486 0 1.47.335 2.633 1.015 3.484.676.856 1.586 1.28 2.735 1.28 1.144.002 2.05-.424 2.718-1.28.665-.85 1-2.015 1-3.484 0-1.47-.335-2.63-1-3.484-.667-.852-1.573-1.282-2.717-1.282zm0-1.28c1.632 0 2.94.546 3.92 1.64.978 1.093 1.47 2.562 1.47 4.406 0 1.844-.492 3.32-1.47 4.422-.98 1.093-2.288 1.64-3.92 1.64-1.65 0-2.96-.546-3.938-1.64-.98-1.102-1.47-2.578-1.47-4.422 0-1.844.49-3.313 1.47-4.406.977-1.094 2.29-1.64 3.938-1.64zm0 0"/></symbol><symbol overflow="visible" id="b"><path d="M1.578-11.672h1.578v4.78H8.89v-4.78h1.58V0H8.89v-5.563H3.157V0H1.578zm0 0"/></symbol></defs><g><path fill="#fff" d="M0 0h300v300H0z"/><path d="M124.97 32.89l17.62 33.95M142.387 71.336l19.105.86" stroke-width="1.2" stroke="#000" stroke-miterlimit="10" fill="none"/><path d="M161.492 72.195l19.106.856" stroke-width="1.2" stroke="#f00" stroke-miterlimit="10" fill="none"/><path d="M142.793 62.344l19.105.86" stroke-width="1.2" stroke="#000" stroke-miterlimit="10" fill="none"/><path d="M161.898 63.203l19.106.86" stroke-width="1.2" stroke="#f00" stroke-miterlimit="10" fill="none"/><path d="M142.59 66.84l-10.297 16.117" stroke-width="1.2" stroke="#000" stroke-miterlimit="10" fill="none"/><path d="M132.293 82.957l-10.297 16.117" stroke-width="1.2" stroke="#f00" stroke-miterlimit="10" fill="none"/><path d="M174.8 59.06h13v19h-13zm0 0" fill="#fff"/><use xlink:href="#a" x="174.801" y="73.91" fill="#f00"/><path d="M139.617 133.023l-11.63-37.058-11.98 6.22zm0 0"/><path d="M115.996 89.574h13v19h-13zm0 0" fill="#fff"/><use xlink:href="#a" x="115.996" y="104.426" fill="#f00"/><path d="M139.617 133.023l38.21 1.72M119.023 165.258l20.594-32.235M177.828 134.742l17.62 33.95" stroke-width="1.2" stroke="#000" stroke-miterlimit="10" fill="none"/><path d="M177.828 134.742l26.28-28.6-11.374-7.267zm0 0"/><path d="M195.45 168.69l-20.595 32.236" stroke-width="1.2" stroke="#000" stroke-miterlimit="10" fill="none"/><path d="M195.45 168.69l37.905 8.462.606-13.488zm0 0"/><path d="M174.855 200.926l17.622 33.95M174.855 200.926l-38.21-1.715" stroke-width="1.2" stroke="#000" stroke-miterlimit="10" fill="none"/><path d="M174.855 200.926l-15.835 17.46 12.175 5.83zm0 0"/><path d="M192.477 234.875l38.21 1.72" stroke-width="1.2" stroke="#000" stroke-miterlimit="10" fill="none"/><path d="M192.477 234.875m-2.032 2.21l.88.56m-2.91 1.648l1.757 1.125m-3.785 1.086l2.636 1.684m-4.668.523l3.516 2.247m-5.546-.035l4.395 2.805m-6.423-.598l5.27 3.366m-7.3-1.156l6.15 3.93m-8.18-1.723l7.03 4.492m-9.06-2.282l7.906 5.05m-9.937-2.843l8.79 5.613m-10.818-3.402l9.665 6.176m-11.696-3.97l10.543 6.74m-12.465-4.645l11.375 7.265" stroke="#000" stroke-miterlimit="10" fill="none"/><path d="M230.688 236.594l20.59-32.235M251.277 204.36l-17.617-33.954M233.66 170.406l-4.945-37.926M233.66 170.406l36.492-11.453" stroke-width="1.2" stroke="#000" stroke-miterlimit="10" fill="none"/><path d="M146.883 257.61h25v19h-25zm0 0" fill="#fff"/><g fill="#f00"><use xlink:href="#b" x="146.883" y="272.461"/><use xlink:href="#a" x="158.914" y="272.461"/></g><path d="M136.645 199.21l-17.622-33.952" stroke-width="1.2" stroke="#000" stroke-miterlimit="10" fill="none"/><path d="M136.645 199.21l1.558 23.52 12.65-4.71zm0 0"/><path d="M116.05 231.44l20.595-32.23M119.023 165.258l-19.105-.856" stroke-width="1.2" stroke="#000" stroke-miterlimit="10" fill="none"/><path d="M99.918 164.402l-19.106-.86" stroke-width="1.2" stroke="#f00" stroke-miterlimit="10" fill="none"/><path d="M119.023 165.258l-11.625-37.06-11.984 6.22zm0 0"/><path d="M80.813 163.543L70.516 179.66" stroke-width="1.2" stroke="#f00" stroke-miterlimit="10" fill="none"/><path d="M70.516 179.66l-10.293 16.117" stroke-width="1.2" stroke="#000" stroke-miterlimit="10" fill="none"/><path d="M74.813 154.043h13v19h-13zm0 0" fill="#fff"/><use xlink:href="#a" x="74.813" y="168.895" fill="#f00"/><path d="M60.223 195.777l17.617 33.95" stroke-width="1.2" stroke="#000" stroke-miterlimit="10" fill="none"/><path d="M60.223 195.777l-34.48 17.887 8.206 10.72zm0 0"/><path d="M60.223 195.777l-28.168-25.88M77.84 229.727l38.21 1.714M112.06 233.516l8.807 16.976" stroke-width="1.2" stroke="#000" stroke-miterlimit="10" fill="none"/><path d="M120.867 250.492l8.81 16.973" stroke-width="1.2" stroke="#f00" stroke-miterlimit="10" fill="none"/><path d="M120.047 229.37l8.808 16.974" stroke-width="1.2" stroke="#000" stroke-miterlimit="10" fill="none"/><path d="M128.855 246.344l8.81 16.976" stroke-width="1.2" stroke="#f00" stroke-miterlimit="10" fill="none"/><path d="M127.672 255.895h13v19h-13zm0 0" fill="#fff"/><use xlink:href="#a" x="127.672" y="270.746" fill="#f00"/><path d="M36.445 170.88l8.325-37.333M27.66 168.922l8.328-37.336" stroke-width="1.2" stroke="#000" stroke-miterlimit="10" fill="none"/><path d="M132.527 210.875h25v19h-25zm0 0" fill="#fff"/><g fill="#f00"><use xlink:href="#a" x="132.527" y="225.727"/><use xlink:href="#b" x="145.121" y="225.727"/></g><path d="M186.422 93.008h25v19h-25zm0 0" fill="#fff"/><g fill="#f00"><use xlink:href="#a" x="186.422" y="107.859"/><use xlink:href="#b" x="199.016" y="107.859"/></g></g></svg>
